X:57
T:Kinlock
S:American Veteran Fifer, #57
M:6/8
L:1/8
Q:1/8=300
K:D 
%%MIDI program 72
%%MIDI transpose 8
%%MIDI ratio 3 1
d/e/ | f>ed AFA | BGB AFA | f>ed AFA | Bec d2 d/e/ |
f>ed AFA | BGB AFA | f>ed AFA | Bec d2 :|
|: a | f2a e2a | d>ed cBA | f2a e2a | ba^g a2 a |
bgb afa | geg fed |  f>ed AFA | Bec d2 :|


